static/logos/canva-glyph-color.svg

<svg width="50" height="16" viewBox="0 0 50 16" fill="none" xmlns="http://www.w3.org/2000/svg">
<g clip-path="url(#clip0_1_3290)">
<path d="M49.6525 10.8892C49.5674 10.8892 49.49 10.9438 49.45 11.0581C48.9375 12.5111 48.2451 13.3755 47.675 13.3755C47.3476 13.3755 47.2149 13.0129 47.2149 12.4441C47.2149 11.0208 48.0725 8.00294 48.5049 6.62689C48.5549 6.46047 48.5875 6.31145 48.5875 6.18478C48.5875 5.78488 48.3674 5.58865 47.8225 5.58865C47.235 5.58865 46.6025 5.81716 45.9875 6.8877C45.775 5.94385 45.1326 5.53152 44.2351 5.53152C43.1976 5.53152 42.1951 6.19471 41.3701 7.27022C40.5451 8.34571 39.575 8.69843 38.8451 8.52456C39.3701 7.24787 39.565 6.29407 39.565 5.58615C39.565 4.47588 39.0125 3.80525 38.1201 3.80525C36.7625 3.80525 35.9799 5.09189 35.9799 6.44556C35.9799 7.49127 36.4576 8.56676 37.5076 9.08838C36.6275 11.0655 35.3424 12.8539 34.8549 12.8539C34.225 12.8539 34.04 9.79132 34.075 7.60056C34.0975 6.34373 34.2025 6.27917 34.2025 5.89912C34.2025 5.68054 34.06 5.53152 33.4875 5.53152C32.1525 5.53152 31.74 6.65422 31.6775 7.94333C31.6574 8.43323 31.5801 8.91914 31.4475 9.39142C30.89 11.3686 29.74 12.8688 28.99 12.8688C28.6424 12.8688 28.5475 12.5235 28.5475 12.0715C28.5475 10.6482 29.35 8.8698 29.35 7.35218C29.35 6.23694 28.8576 5.53152 27.9299 5.53152C26.8375 5.53152 25.3924 6.82311 24.025 9.24238C24.475 7.38944 24.66 5.5961 23.3275 5.5961C23.0384 5.60039 22.7546 5.67365 22.5 5.80971C22.4145 5.84941 22.343 5.91377 22.2949 5.99441C22.2467 6.07502 22.2241 6.16819 22.23 6.26176C22.3575 8.23395 20.63 13.2861 18.9925 13.2861C18.695 13.2861 18.55 12.9657 18.55 12.449C18.55 11.0233 19.405 8.01287 19.835 6.63434C19.89 6.45551 19.92 6.30152 19.92 6.16738C19.92 5.78983 19.685 5.5961 19.1525 5.5961C18.5675 5.5961 17.9325 5.81716 17.32 6.8877C17.105 5.94385 16.4625 5.53152 15.565 5.53152C14.0925 5.53152 12.4475 7.07895 11.725 9.09583C10.7575 11.7883 8.8075 14.3889 6.1825 14.3889C3.8 14.3889 2.5425 12.4192 2.5425 9.30696C2.5425 4.8137 5.8625 1.14257 8.325 1.14257C9.5025 1.14257 10.065 1.88772 10.065 3.03029C10.065 4.4138 9.2875 5.05711 9.2875 5.58368C9.2875 5.74512 9.4225 5.90409 9.69 5.90409C10.76 5.90409 12.02 4.65473 12.02 2.95081C12.02 1.24689 10.6275 0 8.165 0C4.095 0 0 4.06853 0 9.28213C0 13.4301 2.06 15.9314 5.6225 15.9314C8.0525 15.9314 10.175 14.0536 11.32 11.8628C11.45 13.6785 12.28 14.6274 13.545 14.6274C14.67 14.6274 15.58 13.9617 16.275 12.7918C16.5425 14.0163 17.2525 14.6149 18.175 14.6149C19.2325 14.6149 20.1175 13.9493 20.96 12.7123C20.9475 13.6835 21.17 14.5975 22.0175 14.5975C22.4175 14.5975 22.895 14.5056 22.98 14.1579C23.8725 10.4918 26.0775 7.49873 26.7525 7.49873C26.9525 7.49873 27.0076 7.68998 27.0076 7.916C27.0076 8.91203 26.3 10.9537 26.3 12.2578C26.3 13.6661 26.9025 14.5975 28.1475 14.5975C29.5275 14.5975 30.9299 12.9185 31.865 10.4644C32.1576 12.757 32.79 14.6075 33.7799 14.6075C34.9951 14.6075 37.1525 12.0665 38.4601 9.37652C38.9726 9.44108 39.7424 9.4237 40.4826 8.90458C40.1674 9.69694 39.9826 10.5638 39.9826 11.4306C39.9826 13.9269 41.1826 14.6274 42.215 14.6274C43.3375 14.6274 44.2476 13.9617 44.9451 12.7918C45.175 13.8474 45.7625 14.6125 46.8424 14.6125C48.5326 14.6125 50 12.8961 50 11.4878C50 11.1152 49.84 10.8892 49.6525 10.8892ZM14.575 13.2438C13.8925 13.2438 13.625 12.5608 13.625 11.5424C13.625 9.77392 14.8425 6.82064 16.13 6.82064C16.6925 6.82064 16.905 7.47885 16.905 8.28363C16.905 10.0794 15.7475 13.2438 14.575 13.2438ZM37.9524 7.96569C37.5451 7.48382 37.3975 6.82809 37.3975 6.24439C37.3975 5.52407 37.6625 4.91551 37.9799 4.91551C38.2975 4.91551 38.3951 5.226 38.3951 5.65819C38.3951 6.381 38.135 7.43662 37.9524 7.96569ZM43.2451 13.2438C42.5625 13.2438 42.2951 12.459 42.2951 11.5424C42.2951 9.83603 43.5125 6.82064 44.81 6.82064C45.3725 6.82064 45.5726 7.4739 45.5726 8.28363C45.5726 10.0794 44.435 13.2438 43.2451 13.2438Z" fill="url(#paint0_linear_1_3290)"/>
</g>
<defs>
<linearGradient id="paint0_linear_1_3290" x1="4.77941" y1="1.86627e-06" x2="50" y2="12.8676" gradientUnits="userSpaceOnUse">
<stop stop-color="#00BBC6"/>
<stop offset="0.489354" stop-color="#355AE4"/>
<stop offset="1" stop-color="#7225E3"/>
</linearGradient>
<clipPath id="clip0_1_3290">
<rect width="50" height="15.9314" fill="white"/>
</clipPath>
</defs>
</svg>

<svg xmlns="http://www.w3.org/2000/svg" width="200" height="64" fill="none" viewBox="0 0 50 16"><g clip-path="url(#a)"><path fill="url(#b)" d="M49.653 10.89c-.086 0-.163.054-.203.168-.513 1.453-1.205 2.318-1.775 2.318-.327 0-.46-.363-.46-.932 0-1.423.857-4.441 1.29-5.817.05-.167.082-.316.082-.442 0-.4-.22-.596-.765-.596-.587 0-1.22.228-1.835 1.299-.212-.944-.854-1.356-1.752-1.356-1.037 0-2.04.663-2.865 1.738-.825 1.076-1.795 1.428-2.525 1.255.525-1.277.72-2.23.72-2.939 0-1.11-.552-1.78-1.445-1.78-1.357 0-2.14 1.286-2.14 2.64 0 1.045.478 2.12 1.528 2.642-.88 1.978-2.166 3.766-2.653 3.766-.63 0-.815-3.063-.78-5.253.022-1.257.127-1.322.127-1.702 0-.218-.142-.367-.715-.367-1.334 0-1.747 1.122-1.81 2.411-.02.49-.097.976-.23 1.448-.557 1.978-1.707 3.478-2.457 3.478-.348 0-.442-.345-.442-.797 0-1.424.802-3.202.802-4.72 0-1.115-.492-1.82-1.42-1.82-1.093 0-2.538 1.291-3.905 3.71.45-1.853.635-3.646-.697-3.646-.29.004-.573.078-.828.214a.468.468 0 0 0-.27.452c.128 1.972-1.6 7.024-3.238 7.024-.297 0-.442-.32-.442-.837 0-1.426.855-4.436 1.285-5.815.055-.178.085-.332.085-.467 0-.377-.235-.57-.768-.57-.585 0-1.22.22-1.832 1.29-.215-.943-.858-1.355-1.755-1.355-1.473 0-3.117 1.547-3.84 3.564-.967 2.692-2.918 5.293-5.542 5.293-2.383 0-3.64-1.97-3.64-5.082 0-4.493 3.32-8.164 5.782-8.164 1.178 0 1.74.745 1.74 1.887 0 1.384-.777 2.027-.777 2.554 0 .161.134.32.402.32 1.07 0 2.33-1.25 2.33-2.953C12.02 1.247 10.627 0 8.165 0 4.095 0 0 4.069 0 9.282c0 4.148 2.06 6.65 5.622 6.65 2.43 0 4.553-1.878 5.698-4.07.13 1.816.96 2.765 2.225 2.765 1.125 0 2.035-.665 2.73-1.835.268 1.224.978 1.823 1.9 1.823 1.058 0 1.942-.666 2.785-1.903-.012.972.21 1.886 1.057 1.886.4 0 .878-.092.963-.44.892-3.666 3.098-6.66 3.773-6.66.2 0 .255.192.255.418 0 .996-.708 3.038-.708 4.342 0 1.408.602 2.34 1.848 2.34 1.38 0 2.782-1.68 3.717-4.134.293 2.293.925 4.143 1.915 4.143 1.215 0 3.373-2.54 4.68-5.23.513.064 1.282.047 2.023-.472a6.89 6.89 0 0 0-.5 2.526c0 2.496 1.2 3.196 2.232 3.196 1.122 0 2.033-.665 2.73-1.835.23 1.055.818 1.82 1.897 1.82 1.69 0 3.158-1.716 3.158-3.124 0-.373-.16-.599-.347-.599Zm-35.078 2.354c-.682 0-.95-.683-.95-1.702 0-1.768 1.217-4.721 2.505-4.721.563 0 .775.658.775 1.463 0 1.795-1.158 4.96-2.33 4.96Zm23.377-5.278c-.407-.482-.554-1.138-.554-1.722 0-.72.264-1.328.582-1.328.318 0 .415.31.415.742 0 .723-.26 1.779-.443 2.308Zm5.293 5.278c-.682 0-.95-.785-.95-1.702 0-1.706 1.218-4.721 2.515-4.721.563 0 .763.653.763 1.463 0 1.795-1.138 4.96-2.328 4.96Z"/></g><defs><linearGradient id="b" x1="4.779" x2="50" y1="0" y2="12.868" gradientUnits="userSpaceOnUse"><stop stop-color="#00BBC6"/><stop offset=".489" stop-color="#355AE4"/><stop offset="1" stop-color="#7225E3"/></linearGradient><clipPath id="a"><path fill="#fff" d="M0 0h50v15.931H0z"/></clipPath></defs></svg>
